X:1
T:Del freddo Rheno
T:Del freddo Rheno
T:Orlande de Lassus
C:Orlande de Lassus
%%score [ 1 2 [ 3 4 ] ]
L:1/8
Q:1/4=90
M:2/2
K:C
V:1 treble nm="Superius" snm="S"
V:2 treble nm="Altus" snm="A"
V:3 treble-8 nm="Tenor 1" snm="T 1"
V:4 treble-8 nm="Tenor 2" snm="T 2"
V:1
 z8 | z2 G2 A2 B2 | c2 d2 G2 A2 | B2 c3 d B2 | A4 B4- | B2 B2 c3 c | c2 d2 c2 f2- | f2 d4 c2 | %8
w: |Del fred- do|Rhe- no, a la|si- ni- stra ri-|va, vi-|* di an- ge-|le- st'an- dar per|_ fio- ri'e|
 f4 e4 | z2 d2 d2 d2 | e4 ^c2 d2- | d2 B2 c2 d2 | e3 d c4 | B4 z4 | z8 | z4 z2 g2- | g2 e2 f2 e2- | %17
w: her- be,|ch'el cor m'ac-|ce- se di|_ so- a- ve|fo- * *|co,||e|_ per far mi|
 e2 d2 e2 AB | cd ef g2 GA | Bc de ^f2 g2- | gf e4 d2- | d2 c2 d4 | z8 | B4 d2 e2- | e2 d4 e2 | %25
w: _ can- giar pen- *|* * * * sier' _ _|_ _ _ _ _ e|_ _ vo- *|* * ce.||Mi sco- per-|* s'il ca-|
 f2 c2 cB cd | e2 d2 g4- | g4 e4 | c6 B2 | B4 z4 | d6 d2 | e4 c4 | f2 ed e2 e2 | d4 d4- | d8 |] %35
w: min d'un al- * * *|* to sta-|* to,|tut' a-|mor,|tut- ta|gra- tia'e|tut- * * * ta|so- le.|_|
V:2
 z2 D2 E2 F2 | G2 E2 D2 G2 | EF D2 E2 C2 | E3 E A2 G2- | G2 F2 G4- | G4 z4 | z2 G2 A3 A | %7
w: Del fred- do|Rhe- no, a la|si- * ni- stra, a|la si- ni- stra|_ ri- va,|_|vi- di an-|
 A2 _B2 A4- | A2 A2 c2 c2 | A4 B2 B2 | c2 G2 A3 A | A2 G2 FE G2 |"^#" E2 G4 F2 | G2 G4 E2 | %14
w: ge- le- st'an-|* dar per fio-|ri'e her- be,|ch'el cor m'ac- ce-|se di so- * a-|ve fo- *|co, e per|
 F2 D2 F2 C2 | c2 A4 G2 | G4 A2 A2 | G c2 B c4 | A2 G2 EDEF | G2 G2 A2 G2 | c2 B4 B2 | A4 D4 | %22
w: far mi can- giar|pen- sier' e|vo- ce, e|per _ _ far|mi pen- sier' _ _ _|_ e vo- ce,|pen- sier' e|vo- ce.|
 E6 G2 | G4 B2 c2 | c2 A2 B2 c2 | A4 G2 G2- | G2 G2 G2 c2- | cB/A/ B2 c4 | z2 A4 ^G2 | ^G4 A4- | %30
w: Mi sco-|per- s'il ca-|min d'un al- to|sta- to, d'un|_ al- to sta-|* * * * to,|tut- t'a-|mor, tut-|
 A4 B4 | c3 B/A/ G2 A2 | c6 c2 | A4 B4- | B8 |] %35
w: * ta|gra- * * * tia'e|tut- ta|so- le.|_|
V:3
 G4 c2 d2 | e2 c2 f2 d2 | cc g3 e f2 | g4 z4 | z4 z2 d2 | e3 e e2 f2 | e2 d2 fe de | f2 g2 e4 | %8
w: Del fred- do|Rhe- no, a la|si- ni- * stra ri-|va,|vi-|di'an- ge le- st'an-|dar per fio- * * *|* ri'e her-|
 d2 f2 g2 a2 | ^f4 g2 g2- | g2 e4 f2 | d3 d c2 G2 | g2 e2 a4 | d4 z4 | z2 f2 d2 f2 | e2 f4 e2 | %16
w: be, per fio- ri'e|her- be, ch'el|_ cor m'ac-|ce- se di so-|a- ve fio-|co,|e per far|mi can- giar|
 d2 c3 B cd | ef g2 c2 f2- | f2 c2 z4 | z2 B2 d2 e2- | e2 g4 g2 | f2 e2 g2 G2 | g4 g2 e2- | %23
w: pen- sier _ _ _|_ _ _ e vo-|* ce.|Mi sco- per-|* s'il ca-|min d'un al- to|sta- to, mi|
 e2 d2 g4 | a2 ^f2 g2 c2 | c2 f2 e4 | c2 z d e2 e2 | d4 c3 d | e4 z2 e2- | e2 e2 ^f4- | f4 z2 g2- | %31
w: _ sco- per-|s'il- ca- min d'un|al- to sta-|to, d'un al- to|sta- * *|to, tut-|* t'a- mor,|_ tut-|
 g2 g2 e2 f2 | a2 a3 g g2- |"^#" g2 f2 g4- | g8 |] %35
w: * ta gra- tia'e-|tut- ta- * so-|* * le.|_|
V:4
 z8 | z4 z2 G2 | A2 B2 c2 A2 | E2 C2 F2 G2 | c4 G4 | z2 G2 A3 A | A2 _B2 A2 D2 | d2 G2 A4 | %8
w: |Del|fred- do Rhe- no'a-|la si- ni- stra|ri- va,|vi- di'an- ge-|le- st'an- dar per|fio- ri'e her-|
 D2 d2 c2 A2 | d4 G2 G2 | c3 B A2 D2 | ^F2 G2 A2 B2 | c3 B A4 | G4 c4 | A2 _B4 A2- | A2 d2 c2 c2 | %16
w: be, per fio- ri'e|her- be, ch'el|cor m'ac- ce- se|di so- a- ve|fio- * *|co, e|per far mi|_ can- giar pen-|
 B2 c2 FG AB | c2 G2 z4 | z8 | z8 | E6 G2 | A4 B2 B2 | c2 C2 c2 c2 | G6 C2 | z8 | F4 c4- | %26
w: sier e vo- * * *|* ce,.|||Mi sco-|per- s'il ca-|min d'un al- to|sta- to,||d'un al-|
 c2 B2 c4 | G4 z2 A2- | A2 A2 E4- | E4 z2 D2- | D2 D2 G4 | C2 c4 F2 | FG AB c4 | d4 G4- | G8 |] %35
w: * to sta-|to, tut-|* t'a- mor,|_ tut-|* ta gra-|tia'e tut- ta|so- * * * *|* le.|_|

